app/icons/icon.svg

<?xml version="1.0" encoding="UTF-8" standalone="no"?>
<!-- Created with Inkscape (http://www.inkscape.org/) -->

<svg
   xmlns:dc="http://purl.org/dc/elements/1.1/"
   xmlns:cc="http://creativecommons.org/ns#"
   xmlns:rdf="http://www.w3.org/1999/02/22-rdf-syntax-ns#"
   xmlns:svg="http://www.w3.org/2000/svg"
   xmlns="http://www.w3.org/2000/svg"
   xmlns:sodipodi="http://sodipodi.sourceforge.net/DTD/sodipodi-0.dtd"
   xmlns:inkscape="http://www.inkscape.org/namespaces/inkscape"
   width="330"
   height="330"
   sodipodi:version="0.32"
   inkscape:version="0.48.4 r9939"
   sodipodi:docname="icon.svg"
   id="svg2997"
   version="1.1">
  <sodipodi:namedview
     pagecolor="#ffffff"
     bordercolor="#666666"
     borderopacity="1"
     objecttolerance="10"
     gridtolerance="10"
     guidetolerance="10"
     inkscape:pageopacity="0"
     inkscape:pageshadow="2"
     inkscape:window-width="1920"
     inkscape:window-height="1138"
     id="namedview3007"
     showgrid="false"
     inkscape:zoom="1.4801031"
     inkscape:cx="81.192746"
     inkscape:cy="94.176707"
     inkscape:window-x="-8"
     inkscape:window-y="-8"
     inkscape:window-maximized="1"
     inkscape:current-layer="svg2997" />
  <defs
     id="defs2999" />
  <metadata
     id="metadata3001">
    <rdf:RDF>
      <cc:Work>
        <dc:format>image/svg+xml</dc:format>
        <dc:type
           rdf:resource="http://purl.org/dc/dcmitype/StillImage" />
        <dc:creator>
          <cc:Agent>
            <dc:title>MarianSigler</dc:title>
          </cc:Agent>
        </dc:creator>
        <cc:license
           rdf:resource="http://web.resource.org/cc/PublicDomain" />
        <dc:title>infinity symbol</dc:title>
      </cc:Work>
      <cc:License
         rdf:about="http://web.resource.org/cc/PublicDomain">
        <cc:permits
           rdf:resource="http://web.resource.org/cc/Reproduction" />
        <cc:permits
           rdf:resource="http://web.resource.org/cc/Distribution" />
        <cc:permits
           rdf:resource="http://web.resource.org/cc/DerivativeWorks" />
      </cc:License>
    </rdf:RDF>
  </metadata>
  <g
     transform="translate(2.2637743,-22.992403)"
     id="g3003">
    <path
       style="fill:#000000;fill-opacity:1;stroke:none"
       d="m 177.4905,123.22017 c 7.32403,13.03725 15.82013,22.85171 25.48834,29.44342 9.81424,6.44541 20.87382,9.66807 33.17878,9.66799 14.79468,8e-5 26.87965,-4.90715 36.25496,-14.72171 9.37471,-9.96085 14.06222,-22.63176 14.06253,-38.01278 -3.1e-4,-14.794797 -4.32161,-27.099498 -12.9639,-36.914135 -8.64288,-9.814291 -19.48274,-14.721523 -32.5196,-14.721711 -11.86551,1.88e-4 -22.63212,4.90742 -32.29987,14.721711 -9.52173,9.668152 -19.92213,26.513874 -31.20124,50.537215 M 150.68381,99.709379 c -7.17792,-12.890493 -15.67402,-22.558473 -25.48834,-29.003968 -9.66813,-6.445144 -20.72771,-9.667804 -33.178778,-9.667989 -14.795054,1.85e-4 -26.880028,4.907417 -36.254959,14.721711 -9.37509,9.66815 -14.062595,22.192578 -14.06253,37.573317 -6.5e-5,14.79508 4.321229,27.09978 12.963895,36.91414 8.642509,9.81456 19.482365,14.7218 32.519599,14.72171 11.865137,9e-5 22.558513,-4.8339 32.080143,-14.50198 9.66784,-9.66788 20.14148,-26.58685 31.42097,-50.756941 m 15.60062,40.210041 c -10.4006,19.92201 -21.31369,34.49722 -32.73933,43.72568 -11.27947,9.22859 -23.87714,13.84285 -37.793049,13.8428 -19.775531,5e-5 -36.548011,-8.20308 -50.317488,-24.60942 C 31.811432,156.47228 24.999901,136.18417 24.999949,112.01409 24.999901,86.379432 31.079009,65.65187 43.237293,49.831344 55.541927,34.01121 71.508741,26.101045 91.137784,26.100825 c 13.915916,2.2e-4 26.367106,4.541241 37.353596,13.623076 10.98619,8.935763 21.97253,23.730701 32.95905,44.384859 9.96077,-20.214704 20.72738,-35.082885 32.29987,-44.604586 11.57207,-9.667773 24.4627,-14.501763 38.67196,-14.501984 19.48219,2.21e-4 36.10818,8.276598 49.87804,24.829154 13.91572,16.552949 20.87374,36.987542 20.87406,61.303836 -3.2e-4,25.48845 -6.15267,46.14277 -18.45707,61.96302 -12.15852,15.67392 -28.05209,23.51085 -47.68076,23.5108 -13.91629,5e-5 -26.29424,-4.24801 -37.13387,-12.74417 -10.69359,-8.64253 -21.89966,-23.29098 -33.61823,-43.94541"
       id="path3005"
       inkscape:connector-curvature="0" />
  </g>
  <g
     transform="matrix(0.61243003,0,0,0.65575812,-239.06015,144.16409)"
     id="Layer_1" />
  <g
     transform="matrix(0.85772748,0,0,0.87752933,8.2200638,140.11039)"
     id="g238"
     style="fill:#000000">
    <path
       inkscape:connector-curvature="0"
       d="m 85.09,191.531 c -9.639,-12.837 -11.672,-16.173 -10.498,-32.442 1.538,-21.299 1.024,-21.298 -27.811,0.045 -13.26,9.814 -15.87,14.592 -14.196,25.993 1.62,11.038 0.188,13.969 -6.822,13.969 -15.075,0 -11.852,-33.022 5.248,-53.768 7.766,-9.421 9.417,-22.241 13.333,-33.052 5.335,-14.725 8.15,-26.75 7.036,-30.187 C 45.233,63.128 44.692,54.552 31.183,34.796 9.849,3.597 -3.185,5.483 0.674,0.824 4.533,-3.835 26.293,12.102 36.383,27.35 c 10.09,15.249 17.636,31.58 27.497,36.858 9.862,5.277 96.892,22.977 130.058,11.147 14.092,-5.026 32.012,-12.343 47.801,-10.56 8.627,0.974 14.686,-15.681 18.121,-12.668 2.727,2.393 -4.928,8.999 10.32,20.788 4.213,3.259 5.418,9.542 5.234,14.562 -0.635,17.257 -10.467,11.468 -23.684,11.468 -9.891,0 -32.422,13.722 -31.936,27.833 0.211,6.109 3.908,24.076 11.33,37.549 4.877,8.85 8.348,17.451 11.244,22.695 4.564,8.259 8.219,9.749 -1.262,12.075 -2.156,0.528 -6.838,-5.235 -10.262,-11.634 -3.426,-6.398 -14.584,-29.083 -22.336,-34.814 -12.811,-9.471 -11.025,-9.673 -13.885,-2.219 -1.732,4.51 -2.139,27.195 0.738,34.814 4.213,11.164 6.1,13.853 -1.635,13.853 -3.773,0 -6.863,-4.326 -6.863,-9.614 0,-5.288 -3.914,-18.256 -7.811,-29.139 -4.307,-12.021 1.818,-14.643 -7.812,-19.523 -9.63,-4.88 -8.971,0.293 -32.079,2.056 -23.109,1.763 -30.108,-0.974 -39.381,12.049 -13.218,18.563 -12.685,24.647 3.312,37.745 8.597,7.039 8.312,11.445 3.623,11.445 -11.579,-0.004 -15.269,-4.121 -21.625,-12.585 z"
       style="fill:#000000"
       id="path1337" />
  </g>
</svg>

<?xml version="1.0" encoding="UTF-8" standalone="no"?>
<!-- Created with Inkscape (http://www.inkscape.org/) -->
<svg
   xmlns:dc="http://purl.org/dc/elements/1.1/"
   xmlns:cc="http://web.resource.org/cc/"
   xmlns:rdf="http://www.w3.org/1999/02/22-rdf-syntax-ns#"
   xmlns:svg="http://www.w3.org/2000/svg"
   xmlns="http://www.w3.org/2000/svg"
   xmlns:sodipodi="http://inkscape.sourceforge.net/DTD/sodipodi-0.dtd"
   xmlns:inkscape="http://www.inkscape.org/namespaces/inkscape"
   width="330"
   height="220"
   sodipodi:version="0.32"
   inkscape:version="0.41"
   sodipodi:docname="infinite.svg">
  <defs />
 <metadata>
    <rdf:RDF>
      <cc:Work>
        <dc:format>image/svg+xml</dc:format>
        <dc:type rdf:resource="http://purl.org/dc/dcmitype/StillImage" />
        <dc:creator>
          <cc:Agent>
            <dc:title>MarianSigler</dc:title>
          </cc:Agent>
        </dc:creator>
        <cc:license rdf:resource="http://web.resource.org/cc/PublicDomain" />
        <dc:title>infinity symbol</dc:title>
      </cc:Work>
      <cc:License rdf:about="http://web.resource.org/cc/PublicDomain">
        <cc:permits rdf:resource="http://web.resource.org/cc/Reproduction" />
        <cc:permits rdf:resource="http://web.resource.org/cc/Distribution" />
        <cc:permits rdf:resource="http://web.resource.org/cc/DerivativeWorks" />
      </cc:License>
    </rdf:RDF>
  </metadata>
  <g transform="translate(0.912517,-1.244823)">
    <path style="fill:#000000; fill-opacity:1; stroke:none;"
       d="M 177.49050,123.22017 C 184.81453,136.25742 193.31063,146.07188 202.97884,152.66359 C 212.79308,159.10900 223.85266,162.33166 236.15762,162.33158 C 250.95230,162.33166 263.03727,157.42443 272.41258,147.60987 C 281.78729,137.64902 286.47480,124.97811 286.47511,109.59709 C 286.47480,94.802293 282.15350,82.497592 273.51121,72.682955 C 264.86833,62.868664 254.02847,57.961432 240.99161,57.961244 C 229.12610,57.961432 218.35949,62.868664 208.69174,72.682955 C 199.17001,82.351107 188.76961,99.196829 177.49050,123.22017 M 150.68381,99.709379 C 143.50589,86.818886 135.00979,77.150906 125.19547,70.705411 C 115.52734,64.260267 104.46776,61.037607 92.016692,61.037422 C 77.221638,61.037607 65.136664,65.944839 55.761733,75.759133 C 46.386643,85.427283 41.699138,97.951711 41.699203,113.33245 C 41.699138,128.12753 46.020432,140.43223 54.663098,150.24659 C 63.305607,160.06115 74.145463,164.96839 87.182697,164.96830 C 99.047834,164.96839 109.74121,160.13440 119.26284,150.46632 C 128.93068,140.79844 139.40432,123.87947 150.68381,99.709379 M 166.28443,139.91942 C 155.88383,159.84143 144.97074,174.41664 133.54510,183.64510 C 122.26563,192.87369 109.66796,197.48795 95.752051,197.48790 C 75.976520,197.48795 59.204040,189.28482 45.434563,172.87848 C 31.811432,156.47228 24.999901,136.18417 24.999949,112.01409 C 24.999901,86.379432 31.079009,65.651870 43.237293,49.831344 C 55.541927,34.011210 71.508741,26.101045 91.137784,26.100825 C 105.05370,26.101045 117.50489,30.642066 128.49138,39.723901 C 139.47757,48.659664 150.46391,63.454602 161.45043,84.108760 C 171.41120,63.894056 182.17781,49.025875 193.75030,39.504174 C 205.32237,29.836401 218.21300,25.002411 232.42226,25.002190 C 251.90445,25.002411 268.53044,33.278788 282.30030,49.831344 C 296.21602,66.384293 303.17404,86.818886 303.17436,111.13518 C 303.17404,136.62363 297.02169,157.27795 284.71729,173.09820 C 272.55877,188.77212 256.66520,196.60905 237.03653,196.60900 C 223.12024,196.60905 210.74229,192.36099 199.90266,183.86483 C 189.20907,175.22230 178.00300,160.57385 166.28443,139.91942" />
  </g>
</svg>
